!!!Melodie: eigene Melodie
!!!Typ: Lied
**kern	**silbe	**silbe	**silbe	**silbe	**silbe	**silbe	**silbe	**silbe	**silbe
*clefG2	*lang:DE	*lang:DE	*lang:DE	*lang:DE	*lang:DE	*lang:DE	*lang:DE	*lang:DE	*lang:DE
*k[f#]	*	*	*	*	*	*	*	*	*
*M4/4	*	*	*	*	*	*	*	*	*
*met(c)	*	*	*	*	*	*	*	*	*
4r	%	%	%	%	%	%	%	%	%
4b	Nun	Wo	Der	Der	Das	Nun	Mein’	Breit’	Auch
4g	ru#	bist	Tag	Leib	Haupt,	geht,	Au#	aus	euch,
4a	#hen	du,	ist	eilt	die	ihr	#gen	die	ihr
=	=	=	=	=	=	=	=	=	=
8Lb	al#	Sonn’	nun	nun	Füß’	mat#	steh’n	Flü#	mei#
8Jcc	|	|	|	|	|	|	|	|	|
4dd	#le	ge#	ver#	zur	und	#ten	ver#	#gel	#ne
(4.cc	Wäl#	#blie#	#gan#	Ru#	Hän#	Glie#	#dros#	bei#	Lie#
8b)	|	|	|	|	|	|	|	|	|
=	=	=	=	=	=	=	=	=	=
4;b	#der,	#ben?	#gen,	#he,	#de	#der,	#sen,	#de,	#ben,
4b	Vieh,	Die	die	legt	sind	Geht	Im	O	soll
4dd	Men#	Nacht	güld#	ab	froh,	hin	nu	Je#	heu#
4dd	#schen,	hat	#'nen	das	dass	und	sind	#su,	#te
=	=	=	=	=	=	=	=	=	=
4a	Städt’	dich	Ster#	Kleid	nun	legt	sie	mei#	nicht
4b	und	ver#	#ne	und	zum	euch	ge#	#ne	be#
2g	Fel#	#trie#	pran#	Schu#	En#	nie#	#schlos#	Freu#	#trü#
=	=	=	=	=	=	=	=	=	=
4;f#	#der,	#ben,	#gen	#he,	#de	#der,	#sen,	#de,	#ben
4d	es	die	am	das	die	der	wo	und	ein
4g	schläft	Nacht,	blau#	Bild	Ar#	Bet#	bleibt	nimm	Un#
8La	die	des	#en	der	#beit	#ten	denn	dein	#fall,
8Jb	|	|	|	|	|	|	|	|	|
=	=	=	=	=	=	=	=	=	=
4cc	gan#	Ta#	Him#	Sterb#	‘kom#	ihr	Leib	Tüch#	noch
4b	#ze	#ges	#mels#	#lich#	#men	be#	und	#lein	Ge#
4;a	Welt;	Feind.	#saal:	#keit,	sei:	#gehrt:	Seel’?	ein,	#fahr;
8Lb	ihr	Fahr	al#	die	Herz,	es	Nimm	will	Gott
8Ja	|	|	|	|	|	|	|	|	|
=	=	=	=	=	=	=	=	=	=
4g	a#	hin!	#so	zieh’	freu	kom#	sie	Sa#	lass
4a	#ber,	ein	werd’	ich	dich,	#men	zu	#tan	euch
8Lb	mei#	an#	ich	aus;	du	Stund’	dei#	mich	se#
8Jcc	|	|	|	|	|	|	|	|	|
4dd	#ne	#d're	auch	da#	sollst	und	#nen	ver#	#lig
=	=	=	=	=	=	=	=	=	=
(4.cc	Sin#	Son#	ste#	#ge#	wer#	Zei#	Gna#	#schlin#	schla#
8b)	|	|	|	|	|	|	|	|	|
4;b	#nen,	#ne,	#hen,	#gen	#den	#ten,	#den,	#gen,	#fen,
8Lb	auf!	mein	wann	wird	vom	da	sei	so	stell
8Jcc	|	|	|	|	|	|	|	|	|
=	=	=	=	=	=	=	=	=	=
4dd	Auf!	Je#	mich	Chris#	E#	man	gut	lass	euch
4dd	Ihr	#sus,	wird	#tus	#lend	euch	für	die	die
4a	sollt	mei#	hei#	mir	die#	wird	al#	Eng#	gül#
4b	be#	#ne	#ßen	an#	#ser	be#	#len	#lein	#d'nen
=	=	=	=	=	=	=	=	=	=
2g	#gin#	Won#	ge#	#le#	Er#	#rei#	Scha#	sin#	Waf#
4;f#	#nen,	#ne	#hen	#gen	#den	#ten	#den,	#gen:	#fen
4d	was	gar	mein	den	und	zur	du	Dies	um’s
=	=	=	=	=	=	=	=	=	=
4g	eu#	hell	Gott	Rock	von	Ruh’	Aug’	Kind	Bett
4a	#rem	in	aus	der	der	ein	und	soll	und
8Lb	Schö#	mei#	die#	Ehr’	Sün#	Bett#	Wäch#	un#	sei#
8Jcc	|	|	|	|	|	|	|	|	|
8Ldd	#pfer	#nem	#sem	und	#den	#lein	#ter	#ver#	#ner
8Jcc	|	|	|	|	|	|	|	|	|
=	=	=	=	=	=	=	=	=	=
4b	wohl#	Her#	Jam#	Herr#	Ar#	in	Is#	#letz#	Eng#
4a	#ge#	#zen	#mer#	#lich#	#beit	der	#ra#	#et	#el#
2;g	#fällt.	scheint.	#tal.	#keit.	frei.	Erd’.	#el'.	sein.	#schar.
==	==	==	==	==	==	==	==	==	==
*-	*-	*-	*-	*-	*-	*-	*-	*-	*-
